src/icons/hds/some/instagram.svg

<svg xmlns="http://www.w3.org/2000/svg" width="24" height="24" viewBox="0 0 24 24">
  <g fill="none" fill-rule="evenodd">
    <rect width="24" height="24"/>
    <path fill="currentColor" d="M19.0714286,3 C20.0854592,3 20.9172741,3.7835277 20.9941951,4.77790504 L21,4.92857143 L21,19.0714286 C21,20.0854592 20.2164723,20.9172741 19.222095,20.9941951 L19.0714286,21 L4.92857143,21 C3.91454082,21 3.08272595,20.2164723 3.00580487,19.222095 L3,19.0714286 L3,4.92857143 C3,3.91454082 3.7835277,3.08272595 4.77790504,3.00580487 L4.92857143,3 L19.0714286,3 Z M9.1125488,5.0491913 C7.99442276,5.10228667 7.00122699,5.35839375 6.17981037,6.17668712 C5.35839375,6.99498048 5.10540993,7.98817624 5.0491913,9.10942554 L5.0306594,9.54569252 C4.98432964,10.9686546 4.99050694,13.8503655 5.0491913,14.8843279 C5.10228667,16.0055772 5.35839375,16.998773 6.17981037,17.8170664 C7.00122699,18.6353597 7.9912995,18.8914668 9.1125488,18.9476854 L9.54881577,18.9662173 C10.9717779,19.0125471 13.8534887,19.0063698 14.8874512,18.9476854 C16.0087005,18.8945901 17.0018963,18.638483 17.8201896,17.8170664 C18.638483,16.998773 18.8945901,16.0055772 18.9508087,14.8843279 L18.9693406,14.4481575 C19.0156704,13.0257218 19.0094931,10.1465113 18.9508087,9.1125488 C18.8977133,7.9912995 18.6416062,6.99810374 17.8201896,6.17981037 C17.0018963,5.36151701 16.0087005,5.10540993 14.8874512,5.0491913 L14.4511842,5.0306594 C13.0282221,4.98432964 10.1465113,4.99050694 9.1125488,5.0491913 Z M12.0015616,6.26101506 L13.0196528,6.2536414 C14.0970312,6.24924385 15.45401,6.27642313 16.1273843,6.5421082 C16.7395427,6.78572225 17.2111545,7.25733408 17.4578918,7.87261573 C17.8233129,8.79397658 17.7389849,10.9802566 17.7389849,11.9984384 L17.7473944,13.3165685 C17.7452315,14.3349817 17.7015059,15.5121026 17.4578918,16.124261 C17.2142777,16.7364194 16.7426659,17.2080312 16.1273843,17.4547685 C15.2060234,17.8201896 13.0197434,17.7358617 12.0015616,17.7358617 L10.9834705,17.7432353 C9.90609209,17.7476329 8.54911322,17.7204536 7.87573898,17.4547685 C7.26358059,17.2111545 6.79196877,16.7395427 6.54523146,16.124261 C6.17981037,15.2029002 6.26413832,13.0166202 6.26413832,11.9984384 L6.25676465,10.9803472 C6.25236711,9.90296883 6.27954638,8.54598996 6.54523146,7.87261573 C6.78884551,7.26045733 7.26045733,6.78884551 7.87573898,6.5421082 C8.79709983,6.17668712 10.9833798,6.26101506 12.0015616,6.26101506 Z M12.0015616,8.40981595 C10.0151701,8.40981595 8.41293921,10.0120468 8.41293921,11.9984384 C8.41293921,13.9848299 10.0151701,15.5870608 12.0015616,15.5870608 C13.9879532,15.5870608 15.590184,13.9848299 15.590184,11.9984384 C15.590184,10.0120468 13.9879532,8.40981595 12.0015616,8.40981595 Z M12.0015616,9.66536531 C13.2883436,9.66536531 14.3346347,10.7116564 14.3346347,11.9984384 C14.3346347,13.2852203 13.2852203,14.3315114 12.0015616,14.3315114 C10.717903,14.3315114 9.66848857,13.2852203 9.66848857,11.9984384 C9.66848857,10.7116564 10.7147797,9.66536531 12.0015616,9.66536531 Z M15.7369771,7.42598996 C15.2747351,7.42598996 14.8999442,7.80078081 14.8999442,8.26302287 C14.8999442,8.72526492 15.2716118,9.10005577 15.7369771,9.10005577 C16.1992192,9.10005577 16.57401,8.72838818 16.57401,8.26302287 C16.57401,7.80078081 16.1992192,7.42598996 15.7369771,7.42598996 Z"/>
  </g>
</svg>

<svg viewBox="0 0 24 24" role="img" xmlns="http://www.w3.org/2000/svg"><g fill="none" fill-rule="evenodd"><path d="M0 0h24v24H0z"/><path d="M19.071 3a1.93 1.93 0 011.923 1.778l.006.15v14.143a1.93 1.93 0 01-1.778 1.923l-.15.006H4.928a1.93 1.93 0 01-1.923-1.778L3 19.072V4.928a1.93 1.93 0 011.778-1.923L4.928 3h14.143zM9.113 5.05C7.994 5.101 7 5.357 6.18 6.176c-.822.818-1.075 1.811-1.13 2.932l-.02.437c-.046 1.423-.04 4.304.02 5.338.052 1.122.308 2.115 1.13 2.933.821.818 1.811 1.074 2.933 1.13l.436.02c1.423.046 4.304.04 5.338-.02 1.122-.052 2.115-.309 2.933-1.13.818-.818 1.075-1.811 1.13-2.933l.02-.436c.046-1.422.04-4.301-.02-5.335-.052-1.122-.308-2.115-1.13-2.933-.818-.818-1.811-1.075-2.933-1.13l-.436-.02c-1.423-.046-4.304-.04-5.338.02zm2.889 1.211l1.018-.007c1.077-.005 2.434.022 3.107.288a2.362 2.362 0 011.33 1.33c.366.922.282 3.108.282 4.126l.008 1.319c-.002 1.018-.045 2.195-.29 2.807a2.362 2.362 0 01-1.33 1.33c-.921.366-3.107.282-4.125.282l-1.019.007c-1.077.005-2.434-.023-3.107-.288a2.362 2.362 0 01-1.33-1.33c-.366-.922-.282-3.108-.282-4.127l-.007-1.018c-.005-1.077.023-2.434.288-3.107a2.362 2.362 0 011.33-1.33c.922-.366 3.108-.282 4.127-.282zm0 2.149a3.583 3.583 0 00-3.59 3.588 3.583 3.583 0 003.59 3.59 3.583 3.583 0 003.588-3.59 3.583 3.583 0 00-3.588-3.588zm0 1.255a2.335 2.335 0 012.333 2.333 2.337 2.337 0 01-2.333 2.334 2.337 2.337 0 01-2.334-2.334 2.335 2.335 0 012.334-2.333zm3.735-2.239a.837.837 0 100 1.674.837.837 0 000-1.674z" fill="currentColor"/></g></svg>
